X: 1
T: The Killavil
R: jig
M: 6/8
L: 1/8
K: Gmaj
|: BEE GFE | d2d edB | AF{G}F DFF | AFA dAF |
B2E GFE | d2d edB | AFA dAF | FED E3 :|
|: Bef gfe | ~f2f edB | BAF FEF | DFA BAF |
Bef gfe | ~f2f edB | BAB dAF | FED E3 :|


Tune 667	Setting 13707

